src/assets/icons/sprite/telegram.svg

<svg width="240" height="240" xmlns="http://www.w3.org/2000/svg"><path d="M240 120c0 66.274-53.726 120-120 120S0 186.274 0 120 53.726 0 120 0s120 53.726 120 120z" fill="#00a2ff"/><path d="M98 175c-3.888 0-3.227-1.468-4.568-5.17L82 132.207 170 80" fill="#c8daea"/><path d="M98 175c3 0 4.325-1.372 6-3l16-15.558-19.958-12.035" fill="#a9c9dd"/><path d="M100.04 144.41l48.36 35.729c5.519 3.045 9.501 1.468 10.876-5.123l19.685-92.763c2.015-8.08-3.08-11.746-8.36-9.349l-115.59 44.571c-7.89 3.165-7.843 7.567-1.438 9.528l29.663 9.259 68.673-43.325c3.242-1.966 6.218-.91 3.776 1.258" fill="#eff7fc"/></svg>

<?xml version="1.0" encoding="UTF-8"?>
<svg width="240px" height="240px" viewBox="0 0 240 240" xmlns="http://www.w3.org/2000/svg" xmlns:xlink="http://www.w3.org/1999/xlink" version="1.1">
 <!-- Generated by Pixelmator Pro 1.6.3 -->
 <path id="Path" d="M240 120 C240 186.274 186.274 240 120 240 53.726 240 0 186.274 0 120 0 53.726 53.726 0 120 0 186.274 0 240 53.726 240 120 Z" fill="#00a2ff" fill-opacity="1" stroke="none"/>
 <path id="Path-1" d="M98 175 C94.112 175 94.773 173.532 93.432 169.83 L82 132.207 170 80" fill="#c8daea" fill-opacity="1" stroke="none"/>
 <path id="Path-2" d="M98 175 C101 175 102.325 173.628 104 172 L120 156.442 100.042 144.407" fill="#a9c9dd" fill-opacity="1" stroke="none"/>
 <defs>
  <linearGradient id="linear-gradient" gradientUnits="userSpaceOnUse" x1="0.66" y1="0.437" x2="0.851" y2="0.802">
   <stop offset="0" stop-color="#eff7fc" stop-opacity="1"/>
   <stop offset="1" stop-color="#ffffff" stop-opacity="1"/>
  </linearGradient>
 </defs>
 <path id="Path-3" d="M100.04 144.41 L148.4 180.139 C153.919 183.184 157.901 181.607 159.276 175.016 L178.961 82.253 C180.976 74.173 175.881 70.507 170.601 72.904 L55.011 117.475 C47.121 120.64 47.168 125.042 53.573 127.003 L83.236 136.262 151.909 92.937 C155.151 90.971 158.127 92.027 155.685 94.195" fill-opacity="1" fill="url(#linear-gradient)" stroke="none"/>
</svg>
